assets/Worm/Flat/worm_flat.svg

<svg width="32" height="32" viewBox="0 0 32 32" fill="none" xmlns="http://www.w3.org/2000/svg">
<path d="M24.68 29.56C24.97 29.85 25.36 30 25.74 30C26.13 30 26.51 29.85 26.81 29.56C27.4 28.97 27.4 28.03 26.81 27.44L26.58 27.21C26.4355 27.065 26.2974 26.916 26.1659 26.7633C26.1884 26.7969 26.2149 26.8318 26.25 26.8699L24.9471 27.5215L24.13 28.9899C24.1232 28.9825 24.1153 28.9764 24.1066 28.9715C24.2181 29.0931 24.3326 29.2126 24.45 29.33L24.68 29.56Z" fill="#FF8687"/>
<path d="M23.4811 28.2288L24.8436 27.3662L25.63 26.0799C25.647 26.1041 25.6678 26.13 25.6908 26.157C25.213 25.4849 24.8474 24.7571 24.594 24L23.0315 23.6515L21.4579 24C21.8235 25.5318 22.5088 26.9688 23.4811 28.2288Z" fill="#FF8687"/>
<path d="M21.2667 23L23.0315 23.4703L24.3276 23C24.126 21.9949 24.1119 20.9597 24.2852 19.9509C24.2801 19.9506 24.2751 19.9503 24.27 19.9499L23.0315 19.2378L21.3629 19.1707C21.222 19.8873 21.15 20.6231 21.15 21.37C21.15 21.9201 21.1893 22.4645 21.2667 23Z" fill="#FF8687"/>
<path d="M21.599 18.2004L21.6 18.1999L23.0315 18.8726L24.5 18.9799C24.5033 18.9833 24.5065 18.9868 24.5098 18.9902C24.8153 17.9638 25.3239 16.9858 26.0356 16.12C26.0304 16.12 26.0252 16.1199 26.02 16.1199L24.986 15.18L23.4017 14.6109C22.5831 15.6945 21.9754 16.9082 21.599 18.2004Z" fill="#FF8687"/>
<path d="M24.0459 13.8333C24.1765 13.6893 24.3112 13.5481 24.45 13.41C24.97 12.89 25.25 12.2 25.25 11.47C25.25 11.311 25.2362 11.1539 25.2094 11L26.71 10.6047L28.2418 11C28.2539 11.1523 28.26 11.3057 28.26 11.46C28.26 12.9287 27.7071 14.3145 26.7075 15.3873C26.7064 15.3794 26.7072 15.3735 26.71 15.3699L25.1191 14.9252L24.0459 13.8333Z" fill="#FF8687"/>
<path d="M28.0731 9.99998L26.7075 10.3753L24.8226 9.99998C24.7164 9.83205 24.5917 9.67447 24.45 9.53C23.9562 9.03619 23.3091 8.75882 22.62 8.73213L22.2032 7.48L22.62 5.72086C24.1127 5.74641 25.5138 6.34356 26.58 7.4C27.3081 8.12811 27.8181 9.02439 28.0731 9.99998Z" fill="#FF8687"/>
<path d="M21.62 5.79008C20.4285 5.9773 19.3255 6.53453 18.46 7.4L17.6033 8.25673L17.6054 8.25589L18.46 9.53L19.7247 10.3753L20.57 9.53C20.8713 9.23445 21.2298 9.01279 21.62 8.87863L21.9961 7.48L21.62 5.79008Z" fill="#FF8687"/>
<path d="M19.0176 11.0824L18.3202 9.72454L16.8983 8.96299L16.8986 8.9614L14.4329 11.4271L15.3044 12.7662L16.5503 13.5445L16.5496 13.5504L19.0176 11.0824Z" fill="#FF8687"/>
<path d="M15.8516 14.2484L15.8432 14.2516L15.1232 12.8956L13.7258 12.1342L11.25 14.61L11.978 15.8855L13.37 16.73L15.8516 14.2484Z" fill="#FF8687"/>
<path d="M12.6677 17.4282C12.6639 17.4284 12.66 17.43 12.66 17.43L11.978 16.0538L10.5404 15.3103C9.99651 15.784 9.30916 16.0073 8.63 15.9803L8.09502 17.3L8.63 18.979C8.66662 18.9797 8.70328 18.98 8.74 18.98C10.2083 18.98 11.603 18.4274 12.6677 17.4282Z" fill="#FF8687"/>
<path d="M7.63 18.8726L7.96559 17.3L7.63 15.7492C7.32869 15.6163 7.04656 15.4266 6.8 15.18C6.20401 14.584 5.93998 13.7801 6.00793 13L4.68 12.6368L3.00488 13C3.00163 13.0797 3 13.1597 3 13.24C3 14.78 3.6 16.22 4.68 17.3C5.5016 18.1141 6.52205 18.6554 7.63 18.8726Z" fill="#FF8687"/>
<path d="M3.13347 12L4.68 12.5695L6.29229 12C6.42002 11.7475 6.58925 11.5107 6.8 11.3L8.18395 9.91605L7.5514 8.6373L6.06903 7.80112L6.06823 7.79177L4.68 9.18C3.89682 9.97043 3.36605 10.9397 3.13347 12Z" fill="#FF8687"/>
<path d="M6.76707 7.09293L6.77613 7.09402L7.63 8.4561L8.89105 9.20895L10.62 7.48C11.25 6.85 11.6 6.01 11.6 5.11V3.5C11.6 2.67 10.92 2 10.1 2C9.28 2 8.61 2.67 8.6 3.5V5.11C8.6 5.2 8.57 5.29 8.5 5.36L6.76707 7.09293Z" fill="#FF8687"/>
<path d="M21.62 8.86997V5.78997C21.91 5.74997 22.21 5.71997 22.51 5.71997H22.62V8.71997H22.51C22.2 8.71997 21.9 8.76997 21.62 8.86997Z" fill="#E39D89"/>
<path d="M6.06903 7.80115L6.77613 7.09405L8.89743 9.21535L8.19033 9.92245L6.06903 7.80115Z" fill="#E39D89"/>
<path d="M28.06 10H24.83C25.02 10.3 25.15 10.64 25.21 11H28.23C28.21 10.66 28.15 10.33 28.06 10Z" fill="#E39D89"/>
<path d="M26.02 16.12L23.4 14.61C23.6 14.34 23.82 14.08 24.04 13.83L26.71 15.37C26.67 15.42 26.62 15.47 26.57 15.52C26.37 15.71 26.19 15.91 26.02 16.12Z" fill="#E39D89"/>
<path d="M21.6 18.2L24.5 18.9799C24.41 19.2999 24.33 19.63 24.27 19.95L21.36 19.17C21.43 18.84 21.51 18.52 21.6 18.2Z" fill="#E39D89"/>
<path d="M24.32 23H21.27C21.32 23.34 21.38 23.67 21.46 24H24.58C24.47 23.67 24.38 23.33 24.32 23Z" fill="#E39D89"/>
<path d="M26.25 26.87L24.13 28.99C23.9 28.74 23.68 28.49 23.48 28.23L25.63 26.08C25.82 26.35 26.02 26.62 26.25 26.87Z" fill="#E39D89"/>
<path d="M6.01001 13H3.01001C3.02001 12.66 3.06001 12.33 3.14001 12H6.29001C6.14001 12.32 6.04001 12.66 6.01001 13Z" fill="#E39D89"/>
<path d="M11.25 14.61L10.68 15.18C10.64 15.22 10.59 15.27 10.54 15.31L12.66 17.43C12.685 17.41 12.7075 17.3875 12.73 17.365C12.7525 17.3425 12.775 17.32 12.8 17.3L13.37 16.73L11.25 14.61Z" fill="#E39D89"/>
<path d="M13.7219 12.1304L14.429 11.4233L16.5503 13.5446L15.8432 14.2517L13.7219 12.1304Z" fill="#E39D89"/>
<path d="M8.63 15.98C8.29 15.97 7.95001 15.89 7.63 15.75V18.88C7.96 18.94 8.29 18.98 8.63 18.98V15.98Z" fill="#E39D89"/>
<path d="M17.6054 8.25591L16.8983 8.96301L19.0196 11.0843L19.7267 10.3772L17.6054 8.25591Z" fill="#E39D89"/>
<path d="M10.1 4.51001C10.3761 4.51001 10.6 4.28615 10.6 4.01001C10.6 3.73387 10.3761 3.51001 10.1 3.51001C9.82386 3.51001 9.60001 3.73387 9.60001 4.01001C9.60001 4.28615 9.82386 4.51001 10.1 4.51001Z" fill="#212121"/>
</svg>

<svg xmlns="http://www.w3.org/2000/svg" width="32" height="32" fill="none"><path fill="#FF8687" d="M24.68 29.56a1.508 1.508 0 0 0 2.13 0c.59-.59.59-1.53 0-2.12l-.23-.23a8.377 8.377 0 0 1-.414-.447.863.863 0 0 0 .084.107l-1.303.651-.817 1.469a.095.095 0 0 0-.023-.018c.111.121.226.24.343.358l.23.23ZM23.481 28.229l1.363-.863.786-1.286c.017.024.038.05.06.077A8.226 8.226 0 0 1 24.595 24l-1.563-.349-1.573.349a11.147 11.147 0 0 0 2.023 4.229ZM21.267 23l1.765.47 1.296-.47a8.338 8.338 0 0 1-.043-3.05h-.015l-1.238-.712-1.67-.067A11.394 11.394 0 0 0 21.268 23ZM21.599 18.2h.001l1.431.673 1.469.107.01.01a8.195 8.195 0 0 1 1.526-2.87h-.016l-1.034-.94-1.584-.57a11.095 11.095 0 0 0-1.803 3.59ZM24.046 13.833c.13-.144.265-.285.404-.423a2.723 2.723 0 0 0 .76-2.41l1.5-.395 1.532.395a5.73 5.73 0 0 1-1.534 4.387c-.002-.008 0-.014.002-.017l-1.59-.445-1.074-1.092ZM28.073 10l-1.366.375L24.823 10a2.72 2.72 0 0 0-2.203-1.268l-.417-1.252.417-1.76A5.737 5.737 0 0 1 28.073 10ZM21.62 5.79a5.714 5.714 0 0 0-3.16 1.61l-.857.857.002-.001.855 1.274 1.265.845.845-.845a2.8 2.8 0 0 1 1.05-.651l.376-1.399-.376-1.69ZM19.018 11.082l-.698-1.357-1.422-.762v-.002l-2.465 2.466.871 1.34 1.246.777v.006l2.468-2.468ZM15.852 14.248l-.009.004-.72-1.356-1.397-.762-2.476 2.476.728 1.276 1.392.844 2.482-2.482ZM12.668 17.428l-.008.002-.682-1.376-1.438-.744a2.738 2.738 0 0 1-1.91.67l-.535 1.32.535 1.679a5.755 5.755 0 0 0 4.038-1.55ZM7.63 18.873l.336-1.573-.336-1.55A2.739 2.739 0 0 1 6.008 13l-1.328-.363L3.005 13a5.702 5.702 0 0 0 1.675 4.3 5.756 5.756 0 0 0 2.95 1.573ZM3.133 12l1.547.57L6.292 12c.128-.252.297-.49.508-.7l1.384-1.384-.633-1.279-1.482-.836v-.01L4.68 9.18A5.744 5.744 0 0 0 3.133 12ZM6.767 7.093l.01.001.853 1.362 1.261.753L10.62 7.48c.63-.63.98-1.47.98-2.37V3.5c0-.83-.68-1.5-1.5-1.5s-1.49.67-1.5 1.5v1.61c0 .09-.03.18-.1.25L6.767 7.093Z"/><path fill="#E39D89" d="M21.62 8.87V5.79c.29-.04.59-.07.89-.07h.11v3h-.11c-.31 0-.61.05-.89.15ZM6.069 7.801l.707-.707 2.121 2.121-.707.707-2.121-2.12ZM28.06 10h-3.23c.19.3.32.64.38 1h3.02c-.02-.34-.08-.67-.17-1ZM26.02 16.12l-2.62-1.51c.2-.27.42-.53.64-.78l2.67 1.54c-.04.05-.09.1-.14.15-.2.19-.38.39-.55.6ZM21.6 18.2l2.9.78c-.09.32-.17.65-.23.97l-2.91-.78c.07-.33.15-.65.24-.97ZM24.32 23h-3.05c.05.34.11.67.19 1h3.12c-.11-.33-.2-.67-.26-1ZM26.25 26.87l-2.12 2.12c-.23-.25-.45-.5-.65-.76l2.15-2.15c.19.27.39.54.62.79ZM6.01 13h-3c.01-.34.05-.67.13-1h3.15c-.15.32-.25.66-.28 1ZM11.25 14.61l-.57.57c-.04.04-.09.09-.14.13l2.12 2.12c.025-.02.047-.043.07-.065.022-.022.045-.045.07-.065l.57-.57-2.12-2.12ZM13.722 12.13l.707-.707 2.121 2.122-.707.707-2.121-2.122ZM8.63 15.98a2.7 2.7 0 0 1-1-.23v3.13c.33.06.66.1 1 .1v-3ZM17.605 8.256l-.707.707 2.122 2.121.707-.707-2.122-2.121Z"/><path fill="#212121" d="M10.1 4.51a.5.5 0 1 0 0-1 .5.5 0 0 0 0 1Z"/></svg>
